X:520
T: Megan McGann's (with piano acc.)
C: BB
R: reel
Q: 1/8=350
M: 4/4
L: 1/8
V: 1 program 1 110 %fiddle
V: 2 volume=70 clef=bass m=D program 1 00
K: Dmix
[V:1] DE|"D"FDGE FDDE|"D"FGAG FDDE|FGAB "C"c2 Bc|"D"dAAB "Am"cBAG|
[V:2] z2|D,2[A2D2F2]A,,2[A2D2F2]|D,2[A2D2F2]A,,2[A2D2F2]|D,2[A2D2F2]C,2[E2G2C2]|\
D,2[A2D2F2]A,,2[A2C2E2]|
%
[V:1] "D"FDGE FDDE|"D"FGAG FDDE|"D"FGAB "Am"cBcA|"C"GECD "D"ED :|
[V:2] D,2[A2D2F2]A,,2[A2D2F2]|D,2[A2D2F2]A,,2[A2D2F2]|D,2[A2D2F2]A,,2[A2C2E2]|\
C,2[E2G2C2][D,2F,2A,2]:|
%
[V:1] DF|"D"Ad (3d^cd edAB|"C"c2 cB cABc|"D"Ad (3d^cd edfd|"Am"cAGE "D"FDDA|
[V:2] z2|D,2[A2D2F2]A,,2[A2D2F2]|C,2[E2G2C2]G,,2[E2C2G2]|D,2[A2D2F2]A,,2[A2D2F2]|\
A,,2[A2C2E2]D,2[A2D2F2]|
%
[V:1] "D"Ad (3d^cd edAB|"C"c2 cB cdeg|"Am"afge "D"fded|"Am"cAGE "D"ED :|
[V:2] D,2[A2D2F2]A,,2[A2D2F2]|C,2[E2G2C2]G,,2[E2C2G2]|A,,2[A2C2E2]D,2[A2D2F2]|\
A,,2[A2C2E2][D,2F,2A,2] :|

%%%%%%%%%%%%%%%%%%%%%%%%%%%%%%%%%%%%%%%%%%%

